src/img/iconos/icon1LM.svg

<svg width="380" height="380" viewBox="0 0 380 380" fill="none" xmlns="http://www.w3.org/2000/svg">
<path d="M16.5901 290.15C16.4599 290.551 16.3662 290.963 16.3101 291.38C16.3101 295.75 16.2101 300.13 16.3101 304.5C16.4501 310.81 20.3101 313.97 27.5901 313.97H352.45C353.45 314.005 354.452 313.985 355.45 313.91C359.79 313.47 363.34 310.28 363.58 305.91C363.87 300.71 363.65 295.49 363.65 290.1L16.5901 290.15ZM69.1201 308C63.5001 308.05 57.8901 308 52.2701 308C46.6501 308 41.0001 308 35.4301 308C31.0001 308 28.3301 305.7 28.2901 302.06C28.2501 298.42 30.9301 296.06 35.2901 296.06C46.5234 296.02 57.7501 296.02 68.9701 296.06C73.4001 296.06 76.0801 298.36 76.1101 301.99C76.1401 305.62 73.4901 307.92 69.1201 308ZM92.6201 308C91.2501 308 89.8701 308 88.5001 308C84.6901 307.81 82.1901 305.39 82.2101 302C82.2301 298.61 84.7301 296.24 88.5701 296.06C89.4501 296.01 90.3201 296.06 91.1901 296.06H92.6901C97.3901 296.12 100.14 298.35 100.11 302.06C100.08 305.77 97.3501 307.92 92.6201 308Z" fill="#F24E1E"/>
<path d="M27.5296 326H141C139.63 334.22 138.33 342 137 350C128.76 350 120.91 350 113.05 350C108.4 350 106.25 352.26 106.17 356.95C106.11 360.53 106.17 364.12 106.17 367.95H102.45C95.7096 367.95 88.9696 367.87 82.2296 368.01C81.4421 367.987 80.6582 368.124 79.9251 368.412C79.192 368.7 78.5249 369.134 77.9642 369.687C77.4034 370.241 76.9606 370.902 76.6625 371.631C76.3643 372.36 76.2171 373.142 76.2296 373.93C76.2296 377.2 78.6096 379.64 82.1596 379.93C83.0296 380 83.9096 379.93 84.7796 379.93H295.18C296.179 379.98 297.18 379.98 298.18 379.93C299.692 379.834 301.112 379.169 302.155 378.069C303.197 376.969 303.785 375.515 303.8 374C303.825 372.481 303.259 371.011 302.222 369.901C301.185 368.791 299.757 368.128 298.24 368.05C295.88 367.86 293.5 367.98 291.13 367.98H273.86C273.86 364.59 273.86 361.73 273.86 358.87C273.86 351.67 272.21 349.99 265.13 349.98H243C241.66 341.85 240.38 334.12 239 325.98H352.81C367.02 325.98 375.69 317.33 375.69 303.14C375.69 295.76 375.69 288.38 375.69 281C375.69 215.62 375.69 150.243 375.69 84.87C375.746 82.9961 375.625 81.1212 375.33 79.27C373.31 68.75 365 62 354 62C316.44 61.96 278.88 61.96 241.32 62C239.49 62 237.77 62.29 236.69 60C227.2 39.51 211.41 24.29 194.53 9.99997C191.2 7.19997 188.61 7.26997 185.22 10.25C180.806 14.0833 176.426 17.96 172.08 21.88C160.474 32.1999 150.944 44.6388 144 58.53C142.7 61.18 141.24 62.01 138.33 62.01C101.39 61.9033 64.4529 61.88 27.5196 61.94C12.7996 61.94 4.30957 70.45 4.30957 85.19C4.30957 150.463 4.30957 215.73 4.30957 280.99C4.30957 288.23 4.30957 295.473 4.30957 302.72C4.30957 317.46 12.8096 326 27.5296 326ZM261.73 362.2V367.76H118.29V362.2H261.73ZM149.21 349.81C150.54 341.81 151.84 333.95 153.14 326.09H226.85C228.16 333.95 229.46 341.77 230.79 349.81H149.21ZM363.57 306C363.33 310.32 359.78 313.51 355.44 314C354.441 314.075 353.44 314.095 352.44 314.06H27.5896C20.2596 314.06 16.4496 310.9 16.3096 304.59C16.2096 300.22 16.3096 295.84 16.3096 291.47C16.3657 291.052 16.4594 290.641 16.5896 290.24H363.64C363.64 295.54 363.86 300.76 363.57 306ZM172 252.34C172 257.8 174.06 259.93 179.36 259.96C186.466 260 193.576 260 200.69 259.96C205.77 259.96 207.89 257.76 207.92 252.59C207.92 247.23 207.92 241.87 207.92 236.24H225.67V277.8H154.33V236.15H172C172 241.66 172 247 172 252.34ZM184.23 247.66V200.13H195.8V247.66H184.23ZM238.17 236.18C248.74 235.3 248.74 235.3 250.24 223.96H289.75C295.96 223.96 297.95 221.82 297.75 215.5C296.94 190.62 277.52 168.71 252.75 164.7C251.91 164.57 251.08 164.4 249.88 164.18C249.88 148.96 249.76 133.87 249.88 118.79C250.028 103.547 247.622 88.3873 242.76 73.94H352.16C360.59 73.94 363.72 77.03 363.72 85.4V277.79H238.21L238.17 236.18ZM250.03 211.7V176.89C265.53 176.63 283.95 194.89 285.03 211.7H250.03ZM181.45 29.6C184.05 27.26 186.663 24.9266 189.29 22.6C189.517 22.4578 189.763 22.3468 190.02 22.27C214.92 41.6 231.38 66.27 236.36 97.78C237.405 104.945 237.906 112.179 237.86 119.42C238.01 152.66 237.92 185.9 237.92 219.14V223.74H208V213.84C208 207.59 208 201.34 208 195.09C208 190.17 205.81 187.98 200.94 187.94C193.83 187.89 186.72 187.94 179.61 187.94C174.2 187.94 172.1 190.02 172.08 195.38C172.08 204.73 172.08 214.09 172.08 223.78H142.08V219.26C142.08 185.64 142.08 152.023 142.08 118.41C142 82.93 155 53.3 181.45 29.6ZM16.2796 273.36V85.91C16.2796 76.91 19.2096 73.91 28.0796 73.91H137.16C132.325 88.3153 129.926 103.426 130.06 118.62C130.23 133.72 130.06 148.82 130.06 162.89C122.35 166.02 114.76 168.06 108.27 171.94C91.9996 181.73 83.4196 196.7 82.2396 215.74C81.8696 221.74 84.0796 223.95 90.0696 223.96H129.18C130.18 227.62 130.07 231.81 132.12 233.88C134.17 235.95 138.35 235.88 141.9 236.88V277.7H16.2796V273.36ZM130.1 211.85H95.2696C95.2696 196.17 112.27 177.98 129.88 176.78C129.95 177.51 130.09 178.24 130.09 178.97C130.1 189.81 130.1 200.65 130.1 211.85Z" fill="#333333"/>
<path d="M190.27 151.94C198.552 151.902 206.637 149.417 213.51 144.797C220.383 140.176 225.737 133.627 228.898 125.973C232.059 118.318 232.887 109.9 231.277 101.776C229.667 93.6527 225.692 86.1863 219.85 80.3158C214.009 74.4453 206.562 70.4328 198.447 68.7826C190.331 67.1325 181.909 67.9184 174.239 71.0416C166.569 74.1648 159.993 79.4859 155.339 86.3358C150.684 93.1857 148.159 101.259 148.08 109.54C148.027 115.105 149.08 120.625 151.179 125.78C153.278 130.934 156.38 135.62 160.306 139.565C164.232 143.51 168.902 146.636 174.046 148.76C179.19 150.885 184.705 151.965 190.27 151.94ZM190.2 79.94C196.131 79.9677 201.921 81.753 206.838 85.0702C211.755 88.3874 215.578 93.0877 217.825 98.5771C220.071 104.066 220.64 110.099 219.46 115.911C218.279 121.724 215.402 127.056 211.192 131.234C206.982 135.412 201.628 138.248 195.806 139.384C189.985 140.52 183.957 139.905 178.485 137.617C173.013 135.328 168.342 131.469 165.063 126.527C161.783 121.585 160.042 115.781 160.06 109.85C160.072 105.906 160.861 102.003 162.383 98.3647C163.904 94.7262 166.129 91.4234 168.928 88.6454C171.728 85.8673 175.047 83.6685 178.697 82.1747C182.347 80.681 186.256 79.9216 190.2 79.94Z" fill="#333333"/>
<path d="M68.9997 296C57.7797 295.96 46.553 295.96 35.3197 296C30.9197 296 28.2497 298.38 28.3197 302C28.3897 305.62 30.9997 307.93 35.4297 308C41.0397 308.05 46.6597 308 52.2697 308C57.8797 308 63.4997 308 69.1197 308C73.4897 308 76.1897 305.59 76.1197 302C76.0497 298.41 73.4397 296 68.9997 296Z" fill="#333333"/>
<path d="M92.6901 296H91.1901C90.3201 296 89.4501 296 88.5701 296C84.7301 296.18 82.2301 298.53 82.2101 301.94C82.1901 305.35 84.6901 307.77 88.5001 307.94C89.8701 308.01 91.2501 307.94 92.6201 307.94C97.3501 307.89 100.09 305.7 100.11 301.94C100.13 298.18 97.3901 296 92.6901 296Z" fill="#333333"/>
<path d="M190.001 133.94C194.745 133.952 199.386 132.557 203.338 129.933C207.29 127.308 210.376 123.571 212.205 119.193C214.034 114.816 214.525 109.995 213.615 105.339C212.706 100.682 210.437 96.4002 207.095 93.0331C203.753 89.6659 199.487 87.3647 194.838 86.4203C190.189 85.4759 185.364 85.9305 180.973 87.7269C176.582 89.5232 172.822 92.5806 170.168 96.5128C167.514 100.445 166.085 105.076 166.061 109.82C166.045 112.977 166.652 116.106 167.847 119.027C169.043 121.949 170.803 124.606 173.027 126.847C175.25 129.087 177.894 130.867 180.807 132.084C183.72 133.301 186.844 133.932 190.001 133.94ZM190.171 97.9399C192.548 97.9741 194.861 98.7134 196.817 100.064C198.773 101.415 200.284 103.316 201.158 105.527C202.031 107.737 202.229 110.157 201.726 112.48C201.222 114.804 200.04 116.925 198.329 118.575C196.619 120.225 194.456 121.331 192.117 121.75C189.777 122.17 187.365 121.885 185.188 120.932C183.01 119.979 181.164 118.401 179.885 116.398C178.605 114.395 177.95 112.056 178.001 109.68C178.085 106.525 179.408 103.531 181.684 101.344C183.96 99.1583 187.005 97.9567 190.161 97.9999L190.171 97.9399Z" fill="#333333"/>
</svg>

<svg id="Capa_1" data-name="Capa 1" xmlns="http://www.w3.org/2000/svg" viewBox="0 0 380 380"><defs><style>.cls-1{fill:none;}.cls-2{fill:#006c9c;}.cls-3{fill:#333;}</style></defs><path class="cls-1" d="M142.08,219.28v4.52H172c0-9.69,0-19.05,0-28.4,0-5.36,2.12-7.42,7.53-7.44,7.11,0,14.22,0,21.33,0,4.87,0,7,2.23,7.06,7.15,0,6.25,0,12.5,0,18.75v9.9h29.95v-4.6c0-33.24.09-66.48-.06-99.72a143.53,143.53,0,0,0-1.5-21.64c-5-31.56-21.44-56.18-46.34-75.51a3,3,0,0,0-.73.33q-3.93,3.47-7.84,7C155,53.3,142,82.93,142.07,118.43Q142.15,168.86,142.08,219.28ZM189.92,67.94a42,42,0,1,1-41.84,41.6A42,42,0,0,1,189.92,67.94Z"/><path class="cls-1" d="M250.07,176.89V211.7h35C284,194.89,265.57,176.63,250.07,176.89Z"/><path class="cls-1" d="M190,121.92a12,12,0,1,0-12-12.24A12,12,0,0,0,190,121.92Z"/><path class="cls-1" d="M363.72,274V85.4c0-8.37-3.13-11.46-11.56-11.46H242.82a136.44,136.44,0,0,1,7.12,44.85c-.16,15.08,0,30.17,0,45.39,1.2.22,2,.39,2.87.52,24.78,4,44.2,25.92,45,50.8.21,6.32-1.78,8.44-8,8.46H250.28c-1.5,11.34-1.5,11.34-12.07,12.22v41.61H363.72Z"/><path class="cls-1" d="M195.8,200.13H184.27v47.53H195.8Z"/><path class="cls-1" d="M95.27,211.85H130.1c0-11.2,0-22,0-32.88,0-.73-.14-1.46-.21-2.19C112.27,178,95.27,196.17,95.27,211.85Z"/><path class="cls-1" d="M141.9,236.88c-3.55-1-7.73-.93-9.78-3s-2-6.26-2.94-9.92H90.07c-6,0-8.2-2.17-7.83-8.22,1.18-19,9.73-34,26.07-43.77,6.49-3.88,14.08-5.92,21.79-9.05,0-14.07.13-29.17,0-44.27a136.75,136.75,0,0,1,7.1-44.71H28.08c-8.87,0-11.8,3-11.8,12V277.7H141.9Z"/><path class="cls-1" d="M189.62,139.94a30,30,0,1,0-29.56-30.09A30,30,0,0,0,189.62,139.94Zm.58-54a24,24,0,1,1-24.15,23.88A24,24,0,0,1,190.2,85.94Z"/><path class="cls-1" d="M154.33,236.15v41.64h71.39V236.23H208c0,5.63,0,11,0,16.35,0,5.17-2.15,7.34-7.23,7.37q-10.66.07-21.33,0c-5.3,0-7.34-2.16-7.36-7.62s0-10.68,0-16.19Z"/><path class="cls-2" d="M16.59,290.15a7,7,0,0,0-.28,1.23c0,4.37-.1,8.75,0,13.12.14,6.31,4,9.47,11.28,9.47H352.45a27.13,27.13,0,0,0,3-.06c4.34-.44,7.89-3.63,8.13-8,.29-5.2.07-10.42.07-15.81ZM69.12,308c-5.62.05-11.23,0-16.85,0S41,308,35.43,308c-4.43,0-7.1-2.3-7.14-5.94s2.64-6,7-6q16.85-.06,33.68,0c4.43,0,7.11,2.3,7.14,5.93S73.49,307.92,69.12,308Zm23.5,0c-1.37,0-2.75,0-4.12,0-3.81-.19-6.31-2.61-6.29-6s2.52-5.76,6.36-5.94c.88-.05,1.75,0,2.62,0h1.5c4.7.06,7.45,2.29,7.42,6S97.35,307.92,92.62,308Z"/><path class="cls-3" d="M27.53,326H141c-1.37,8.22-2.67,16-4,24-8.24,0-16.09,0-23.95,0-4.65,0-6.8,2.26-6.88,6.95-.06,3.58,0,7.17,0,11h-3.72c-6.74,0-13.48-.08-20.22.06a5.83,5.83,0,0,0-6,5.92c0,3.27,2.38,5.71,5.93,6,.87.07,1.75,0,2.62,0h210.4a29.79,29.79,0,0,0,3,0,6,6,0,0,0,5.62-5.93,5.86,5.86,0,0,0-5.56-5.95c-2.36-.19-4.74-.07-7.11-.07H273.86c0-3.39,0-6.25,0-9.11,0-7.2-1.65-8.88-8.73-8.89H243c-1.34-8.13-2.62-15.86-4-24H352.81c14.21,0,22.88-8.65,22.88-22.84q0-11.07,0-22.14,0-98.07,0-196.13a29.84,29.84,0,0,0-.36-5.6C373.31,68.75,365,62,354,62q-56.34-.06-112.68,0c-1.83,0-3.55.29-4.63-2-9.49-20.49-25.28-35.71-42.16-50-3.33-2.8-5.92-2.73-9.31.25Q178.6,16,172.08,21.88A122.11,122.11,0,0,0,144,58.53c-1.3,2.65-2.76,3.48-5.67,3.48q-55.41-.16-110.81-.07c-14.72,0-23.21,8.51-23.21,23.25q0,97.91,0,195.8,0,10.86,0,21.73C4.31,317.46,12.81,326,27.53,326Zm234.2,36.2v5.56H118.29v-5.56ZM149.21,349.81c1.33-8,2.63-15.86,3.93-23.72h73.71c1.31,7.86,2.61,15.68,3.94,23.72ZM363.57,306c-.24,4.32-3.79,7.51-8.13,8a27.13,27.13,0,0,1-3,.06H27.59c-7.33,0-11.14-3.16-11.28-9.47-.1-4.37,0-8.75,0-13.12a7,7,0,0,1,.28-1.23H363.64C363.64,295.54,363.86,300.76,363.57,306ZM172,252.34c0,5.46,2.06,7.59,7.36,7.62q10.66.06,21.33,0c5.08,0,7.2-2.2,7.23-7.37,0-5.36,0-10.72,0-16.35h17.75v41.56H154.33V236.15H172C172,241.66,172,247,172,252.34Zm12.23-4.68V200.13H195.8v47.53Zm53.94-11.48c10.57-.88,10.57-.88,12.07-12.22h39.51c6.21,0,8.2-2.14,8-8.46-.81-24.88-20.23-46.79-45-50.8-.84-.13-1.67-.3-2.87-.52,0-15.22-.12-30.31,0-45.39a136.44,136.44,0,0,0-7.12-44.85H352.16c8.43,0,11.56,3.09,11.56,11.46V277.79H238.21Zm11.86-24.48V176.89c15.5-.26,33.92,18,35,34.81ZM181.45,29.6q3.9-3.51,7.84-7a3,3,0,0,1,.73-.33c24.9,19.33,41.36,44,46.34,75.51a143.53,143.53,0,0,1,1.5,21.64c.15,33.24.06,66.48.06,99.72v4.6H208v-9.9c0-6.25,0-12.5,0-18.75,0-4.92-2.19-7.11-7.06-7.15-7.11-.05-14.22,0-21.33,0-5.41,0-7.51,2.08-7.53,7.44,0,9.35,0,18.71,0,28.4H142.08v-4.52q0-50.43,0-100.85C142,82.93,155,53.3,181.45,29.6ZM16.28,273.36V85.91c0-9,2.93-12,11.8-12H137.16a136.75,136.75,0,0,0-7.1,44.71c.17,15.1,0,30.2,0,44.27-7.71,3.13-15.3,5.17-21.79,9.05C92,181.73,83.42,196.7,82.24,215.74c-.37,6,1.84,8.21,7.83,8.22h39.11c1,3.66.89,7.85,2.94,9.92s6.23,2,9.78,3V277.7H16.28ZM130.1,211.85H95.27c0-15.68,17-33.87,34.61-35.07.07.73.21,1.46.21,2.19C130.1,189.81,130.1,200.65,130.1,211.85Z"/><path class="cls-3" d="M190.27,151.94a42,42,0,1,0-42.19-42.4A42,42,0,0,0,190.27,151.94Zm-.07-72a30,30,0,1,1-30.14,29.91A30,30,0,0,1,190.2,79.94Z"/><path class="cls-3" d="M69,296q-16.83-.06-33.68,0c-4.4,0-7.07,2.38-7,6S31,307.93,35.43,308c5.61.05,11.23,0,16.84,0s11.23,0,16.85,0c4.37,0,7.07-2.41,7-6S73.44,296,69,296Z"/><path class="cls-3" d="M92.69,296h-1.5c-.87,0-1.74,0-2.62,0-3.84.18-6.34,2.53-6.36,5.94s2.48,5.83,6.29,6c1.37.07,2.75,0,4.12,0,4.73-.05,7.47-2.24,7.49-6S97.39,296,92.69,296Z"/><path class="cls-3" d="M190,133.94a24,24,0,1,0-23.94-24.12A24,24,0,0,0,190,133.94Zm.17-36A12,12,0,1,1,178,109.68,12,12,0,0,1,190.16,98Z"/></svg>
